X:868
T:Devils of Dublin, The
R:reel
H:See also "Merry Blacksmith", #17
D:Catherine McEvoy, Caoimh\'in \'O Raghallaigh & M\'iche\'al \'O Raghallaigh
Z:id:hn-reel-868
M:C|
L:1/8
K:D
dBcA BAFB | AFBF AFEF | Ad~d2 ~f3d | e2df eB~B2 |
dBcA BAFB | AFBF AFEF | ABdg fdec | dBAG FDD2 :|
|: ~a3g ~f3e | d2cd BAFB | Ad~d2 ~f3d | e2df eB~B2 |
afge ~f3e | d2cd BAFB | ABdg f2ec | dBAG FDD2 :|
P:variations
|: d2cA BAFB | AFBF AFEF | Ad~d2 ~f3d | e2df eB~B2 |
d2cA BAFB | AFBF AFEF | ABdg f2ec | dBAG FDD2 :|
|: afge ~f3e | d2cd BAFB | Ad~d2 Adfd | e2df eB~B2 |
afge fdec | d2cd BAFB | ABde fdec | dBAG FDD2 :|

